X: 29
T:Otter's Holt, The
M:C|
L:1/8
C:Junior Crehan
R:Reel
K:BMin
de[|:fBBA FEFB|A2FB ABde|fBBA FEFA|BdcA B2de|!
fBBA FEFB|A2FB ABde|faaf egfe|1dBAF B3e:|2dBAF B3A|!
|:~d3f a2fa|bfaf efdB|d2fd adfa|bfaf e2fe|!
~d3f adfa|bfaf efde|fBBA "var."FEFG|1ABBA B3A:|2ABBA B2de|]!
